places/scalable/folder-documents.svg

<?xml version="1.0" encoding="UTF-8" standalone="no"?>
<!-- Created with Inkscape (http://www.inkscape.org/) -->

<svg
   xmlns:dc="http://purl.org/dc/elements/1.1/"
   xmlns:cc="http://creativecommons.org/ns#"
   xmlns:rdf="http://www.w3.org/1999/02/22-rdf-syntax-ns#"
   xmlns:svg="http://www.w3.org/2000/svg"
   xmlns="http://www.w3.org/2000/svg"
   xmlns:xlink="http://www.w3.org/1999/xlink"
   xmlns:sodipodi="http://sodipodi.sourceforge.net/DTD/sodipodi-0.dtd"
   xmlns:inkscape="http://www.inkscape.org/namespaces/inkscape"
   width="64"
   height="64"
   id="svg4168"
   version="1.1"
   inkscape:version="0.91 r13725"
   viewBox="0 0 64 64"
   sodipodi:docname="folder-documents.svg">
  <defs
     id="defs4170">
    <linearGradient
       inkscape:collect="always"
       id="linearGradient4158">
      <stop
         style="stop-color:#f4a56a;stop-opacity:1"
         offset="0"
         id="stop4160" />
      <stop
         style="stop-color:#ff5b23;stop-opacity:0"
         offset="1"
         id="stop4162" />
    </linearGradient>
    <filter
       inkscape:collect="always"
       style="color-interpolation-filters:sRGB"
       id="filter4171"
       x="-0.019924528"
       width="1.0398491"
       y="-0.030171429"
       height="1.0603429">
      <feGaussianBlur
         inkscape:collect="always"
         stdDeviation="0.44"
         id="feGaussianBlur4173" />
    </filter>
    <linearGradient
       inkscape:collect="always"
       xlink:href="#linearGradient4158"
       id="linearGradient4164"
       x1="34.184227"
       y1="24.072868"
       x2="35.829803"
       y2="39.243523"
       gradientUnits="userSpaceOnUse" />
  </defs>
  <sodipodi:namedview
     id="base"
     pagecolor="#ffffff"
     bordercolor="#666666"
     borderopacity="1.0"
     inkscape:pageopacity="0.0"
     inkscape:pageshadow="2"
     inkscape:zoom="1.375"
     inkscape:cx="-141.05634"
     inkscape:cy="88.806385"
     inkscape:current-layer="layer1"
     showgrid="false"
     inkscape:document-units="px"
     inkscape:grid-bbox="true"
     inkscape:window-width="1855"
     inkscape:window-height="1056"
     inkscape:window-x="1431"
     inkscape:window-y="24"
     inkscape:window-maximized="1">
    <inkscape:grid
       type="xygrid"
       id="grid4716" />
  </sodipodi:namedview>
  <metadata
     id="metadata4173">
    <rdf:RDF>
      <cc:Work
         rdf:about="">
        <dc:format>image/svg+xml</dc:format>
        <dc:type
           rdf:resource="http://purl.org/dc/dcmitype/StillImage" />
        <dc:title />
      </cc:Work>
    </rdf:RDF>
  </metadata>
  <g
     id="layer1"
     inkscape:label="Layer 1"
     inkscape:groupmode="layer">
    <path
       style="fill:#dd6031;fill-opacity:1;fill-rule:evenodd;stroke:#dd6031;stroke-width:2;stroke-linecap:butt;stroke-linejoin:round;stroke-miterlimit:4;stroke-dasharray:none;stroke-opacity:1"
       d="m 7,57 0,-41 21,0 7,5 23,0 0,36 z"
       id="path4150"
       inkscape:connector-curvature="0" />
    <path
       style="fill:#9a3c19;fill-opacity:1;fill-rule:evenodd;stroke:none;stroke-width:2;stroke-linecap:butt;stroke-linejoin:round;stroke-miterlimit:4;stroke-dasharray:none;stroke-opacity:1;filter:url(#filter4171)"
       d="m 6.4636364,57.743998 51.0727276,0 0.963636,-35 -24.090909,0 -9.636364,5 -19.272727,0 z"
       id="path4148-3"
       inkscape:connector-curvature="0"
       transform="matrix(0.96091488,0,0,1.0011568,1.2296943,-0.04655443)" />
    <path
       style="fill:#e9754d;fill-opacity:1;fill-rule:evenodd;stroke:#e9754d;stroke-width:2;stroke-linecap:butt;stroke-linejoin:round;stroke-miterlimit:4;stroke-dasharray:none;stroke-opacity:1"
       d="M 6,59 59,59 60,24 35,24 25,29 5,29 Z"
       id="path4148"
       inkscape:connector-curvature="0" />
    <path
       style="opacity:0.98999999;fill:url(#linearGradient4164);fill-opacity:1;fill-rule:evenodd;stroke:none;stroke-width:4.57700014;stroke-linecap:round;stroke-linejoin:round;stroke-miterlimit:4;stroke-dasharray:none;stroke-opacity:1"
       d="M 35 24 L 25 29 L 5 29 L 5.515625 44.458984 L 59.416016 44.458984 L 60 24 L 35 24 z "
       id="rect4139" />
    <path
       style="opacity:1;fill:#ffffff;fill-opacity:1;stroke:#ffffff;stroke-width:0;stroke-miterlimit:4;stroke-dasharray:none;stroke-opacity:1;shape-rendering:crispEdges"
       d="m 37.780312,33.000009 c -0.348968,0 -0.780317,0.422891 -0.780313,0.843906 l 0,20.334523 c 0,0.427754 0.463582,0.821563 0.818126,0.821563 l 14.179681,0 c 0.307769,0 0.842187,-0.615249 0.842187,-0.986563 0,-5.078714 -0.0052,-15.580462 -0.0052,-15.580462 l -4.528905,-5.432967 -10.52562,0 z m 1.299374,7.280623 11.520777,0 0,1.079374 -11.520777,0 0,-1.079374 z m 0,2.346092 11.520777,0 0,1.079375 -11.520777,0 0,-1.079375 z m 0,2.346093 11.520777,0 0,1.081093 -11.520777,0 0,-1.081093 z m 0,2.347812 11.520777,0 0,1.079374 -11.520777,0 0,-1.079374 z"
       id="rect4141-4"
       inkscape:connector-curvature="0" />
  </g>
</svg>

<?xml version="1.0" encoding="UTF-8" standalone="no"?>
<!-- Created with Inkscape (http://www.inkscape.org/) -->

<svg
   xmlns:dc="http://purl.org/dc/elements/1.1/"
   xmlns:cc="http://creativecommons.org/ns#"
   xmlns:rdf="http://www.w3.org/1999/02/22-rdf-syntax-ns#"
   xmlns:svg="http://www.w3.org/2000/svg"
   xmlns="http://www.w3.org/2000/svg"
   xmlns:xlink="http://www.w3.org/1999/xlink"
   xmlns:sodipodi="http://sodipodi.sourceforge.net/DTD/sodipodi-0.dtd"
   xmlns:inkscape="http://www.inkscape.org/namespaces/inkscape"
   width="64"
   height="64"
   id="svg4168"
   version="1.1"
   inkscape:version="0.91 r13725"
   viewBox="0 0 64 64"
   sodipodi:docname="folder-documents.svg">
  <defs
     id="defs4170">
    <linearGradient
       inkscape:collect="always"
       id="linearGradient4158">
      <stop
         style="stop-color:#f4a56a;stop-opacity:1"
         offset="0"
         id="stop4160" />
      <stop
         style="stop-color:#ff5b23;stop-opacity:0"
         offset="1"
         id="stop4162" />
    </linearGradient>
    <filter
       inkscape:collect="always"
       style="color-interpolation-filters:sRGB"
       id="filter4171"
       x="-0.019924528"
       width="1.0398491"
       y="-0.030171429"
       height="1.0603429">
      <feGaussianBlur
         inkscape:collect="always"
         stdDeviation="0.44"
         id="feGaussianBlur4173" />
    </filter>
    <linearGradient
       inkscape:collect="always"
       xlink:href="#linearGradient4158"
       id="linearGradient4164"
       x1="34.184227"
       y1="24.072868"
       x2="35.829803"
       y2="39.243523"
       gradientUnits="userSpaceOnUse" />
  </defs>
  <sodipodi:namedview
     id="base"
     pagecolor="#ffffff"
     bordercolor="#666666"
     borderopacity="1.0"
     inkscape:pageopacity="0.0"
     inkscape:pageshadow="2"
     inkscape:zoom="11"
     inkscape:cx="34.687471"
     inkscape:cy="15.851887"
     inkscape:current-layer="layer1"
     showgrid="false"
     inkscape:document-units="px"
     inkscape:grid-bbox="true"
     inkscape:window-width="1366"
     inkscape:window-height="704"
     inkscape:window-x="0"
     inkscape:window-y="30"
     inkscape:window-maximized="1">
    <inkscape:grid
       type="xygrid"
       id="grid4716" />
  </sodipodi:namedview>
  <metadata
     id="metadata4173">
    <rdf:RDF>
      <cc:Work
         rdf:about="">
        <dc:format>image/svg+xml</dc:format>
        <dc:type
           rdf:resource="http://purl.org/dc/dcmitype/StillImage" />
        <dc:title />
      </cc:Work>
    </rdf:RDF>
  </metadata>
  <g
     id="layer1"
     inkscape:label="Layer 1"
     inkscape:groupmode="layer">
    <path
       style="fill:#dd6031;fill-opacity:1;fill-rule:evenodd;stroke:#dd6031;stroke-width:2;stroke-linecap:butt;stroke-linejoin:round;stroke-miterlimit:4;stroke-dasharray:none;stroke-opacity:1"
       d="m 7,57 0,-41 21,0 7,5 23,0 0,36 z"
       id="path4150"
       inkscape:connector-curvature="0" />
    <path
       style="fill:#9a3c19;fill-opacity:1;fill-rule:evenodd;stroke:none;stroke-width:2;stroke-linecap:butt;stroke-linejoin:round;stroke-miterlimit:4;stroke-dasharray:none;stroke-opacity:1;filter:url(#filter4171)"
       d="m 6.4636364,57.743998 51.0727276,0 0.963636,-35 -24.090909,0 -9.636364,5 -19.272727,0 z"
       id="path4148-3"
       inkscape:connector-curvature="0"
       transform="matrix(0.96091488,0,0,1.0011568,1.2296943,-0.04655443)" />
    <path
       style="fill:#e9754d;fill-opacity:1;fill-rule:evenodd;stroke:#e9754d;stroke-width:2;stroke-linecap:butt;stroke-linejoin:round;stroke-miterlimit:4;stroke-dasharray:none;stroke-opacity:1"
       d="M 6,59 59,59 60,24 35,24 25,29 5,29 Z"
       id="path4148"
       inkscape:connector-curvature="0" />
    <path
       style="opacity:0.98999999;fill:url(#linearGradient4164);fill-opacity:1;fill-rule:evenodd;stroke:none;stroke-width:4.57700014;stroke-linecap:round;stroke-linejoin:round;stroke-miterlimit:4;stroke-dasharray:none;stroke-opacity:1"
       d="M 35 24 L 25 29 L 5 29 L 5.515625 44.458984 L 59.416016 44.458984 L 60 24 L 35 24 z "
       id="rect4139" />
    <path
       style="opacity:1;fill:#ffffff;fill-opacity:1;stroke:#ffffff;stroke-width:0;stroke-miterlimit:4;stroke-dasharray:none;stroke-opacity:1;shape-rendering:crispEdges"
       d="M 37.779297 33 C 37.430642 33.001426 36.999996 33.423447 37 33.84375 L 37 54.177734 C 37 54.605488 37.463815 55 37.818359 55 L 51.998047 55 C 52.305816 55 52.839844 54.384986 52.839844 54.013672 C 52.839844 48.934958 52.833984 38.433594 52.833984 38.433594 L 48.306641 33 L 37.78125 33 L 37.779297 33 z "
       id="rect4141-4" />
  </g>
</svg>
